icons/people-outline.svg

<svg xmlns="http://www.w3.org/2000/svg" width="24" height="24" viewBox="0 0 24 24">
  <path d="M18,14 C20.677941,14 22,15.5109246 22,17.5 L22,17.5 L22,18 C22,19.0522847 21.0522847,20 20,20 L20,20 L15,20 C14.8422044,20 14.692945,19.9634518 14.5602253,19.8983588 L14.4909783,19.9222392 C14.4400212,19.9374164 14.3882908,19.9507241 14.3358722,19.962066 L14.1766376,19.9900988 L14,20 L4,20 C2.64678934,20 2.05922027,19.3152824 2.00437087,18.2334926 L2.00017151,18.0835416 L2,17.5 C2,15.0740029 4.15581677,14.0955719 7.49976092,14.0066155 L7.77347606,14.001341 L9.98,14 L10,14 Z M9.99999996,15.999982 L8.00599932,15.999982 L7.79159569,16.0012496 C5.38258988,16.0304496 4.0939202,16.5417008 4.00494504,17.4026165 L3.99999996,17.499706 L3.99999996,18 L13.9698076,18.0019793 C13.9548127,18.0040555 13.9831328,17.9700142 13.9950606,17.9815377 L14,18 L13.999,17.499 L13.996433,17.4029378 C13.9325262,16.5593681 12.6281505,16.0381654 10.2667217,16.0020126 L9.99999996,15.999982 Z M18,16 L15.805,15.999 L15.8316524,16.0594577 C15.9246107,16.2938101 15.9795465,16.550184 15.9952763,16.8295868 L15.9952763,16.8295868 L16,17 L15.999,17.474 L16,17.5 L16,17.999 L20,18 L20,17.5 C20,16.560504 19.509559,16 18,16 L18,16 Z M17,6 C18.6568542,6 20,7.34314575 20,9 C20,10.6568542 18.6568542,12 17,12 C15.3431458,12 14,10.6568542 14,9 C14,7.34314575 15.3431458,6 17,6 Z M9,4 C11.209139,4 13,5.790861 13,8 C13,10.209139 11.209139,12 9,12 C6.790861,12 5,10.209139 5,8 C5,5.790861 6.790861,4 9,4 Z M17,8 C16.4477153,8 16,8.44771525 16,9 C16,9.55228475 16.4477153,10 17,10 C17.5522847,10 18,9.55228475 18,9 C18,8.44771525 17.5522847,8 17,8 Z M9,6 C7.8954305,6 7,6.8954305 7,8 C7,9.1045695 7.8954305,10 9,10 C10.1045695,10 11,9.1045695 11,8 C11,6.8954305 10.1045695,6 9,6 Z"/>
</svg>

<svg xmlns="http://www.w3.org/2000/svg" viewBox="0 0 24 24">
  <path d="M18 14c2.68 0 4 1.51 4 3.5v.5c0 1.05-.95 2-2 2h-5a1 1 0 0 1-.44-.1l-.07.02-.15.04-.16.03L14 20H4c-1.35 0-1.94-.68-2-1.77v-.73c0-2.43 2.16-3.4 5.5-3.5H10zm-8 2H7.8c-2.42.03-3.7.54-3.8 1.4v.6h9.97c-.02 0 .01-.03.03-.02V18v-.6c-.07-.84-1.37-1.36-3.73-1.4H10zm8 0h-2.2l.03.06c.1.23.15.49.17.77V18h4v-.5c0-.94-.49-1.5-2-1.5zM17 6a3 3 0 1 1 0 6 3 3 0 0 1 0-6zM9 4a4 4 0 1 1 0 8 4 4 0 0 1 0-8zm8 4a1 1 0 1 0 0 2 1 1 0 0 0 0-2zM9 6a2 2 0 1 0 0 4 2 2 0 0 0 0-4z"/>
</svg>
